src/assets/cards/3D.svg

<svg clip-rule="evenodd" fill-rule="evenodd" stroke-linejoin="round" stroke-miterlimit="2" viewBox="0 0 934 1300" xmlns="http://www.w3.org/2000/svg"><g fill="#d40000" fill-rule="nonzero"><path d="m374.059 240.355c41.333-40.342 68.479-84.322 94.445-126.622 22.768 46.539 55.433 87.258 90.771 126.622-37.809 39.038-67.1 80.772-90.658 124.652-26.117-44.983-53.614-85.715-94.558-124.652z"/><path d="m374.059 1061.61c41.333-40.34 68.479-84.318 94.445-126.617 22.768 46.539 55.433 87.257 90.771 126.617-37.809 39.04-67.1 80.78-90.658 124.66-26.117-44.99-53.614-85.72-94.558-124.66z"/><path d="m374.059 650.627c41.333-40.33 68.479-84.322 94.445-126.621 22.768 46.551 55.433 87.27 90.771 126.621-37.809 39.038-67.1 80.785-90.658 124.665-26.117-44.984-53.614-85.715-94.558-124.665z"/><path d="m819.591 1038.31c16.935-16.53 28.061-34.54 38.699-51.867 9.32 19.057 22.705 35.737 37.181 51.867-15.492 15.99-27.484 33.08-37.144 51.06-10.7-18.43-21.952-35.11-38.736-51.06z"/><path d="m37.821 262.176c16.934-16.521 28.061-34.547 38.699-51.871 9.32 19.067 22.705 35.751 37.181 51.871-15.492 15.994-27.485 33.091-37.144 51.067-10.7-18.427-21.952-35.111-38.736-51.067z"/><path d="m36.807 163.785 10.612-7.665c9.233 14.727 19.531 24.424 35.274 22.756 23.646-1.594 33.431-25.917 28.488-44.257-4.779-16.445-24.36-24.461-39.915-15.68-3.663 2.07-7.903 4.629-7.903 4.629l-5.545-9.032 36.517-42.475h-39.628v17.575h-15.203v-31.511h77.46v10.687s-20.748 21.125-27.622 32.703c16.897.615 30.52 11.127 35.387 27.748 2.86 8.743 1.581 28.752-2.157 37.369-6.222 14.376-23.257 26.03-38.837 26.707-26.13 1.731-40.004-16.257-46.928-29.554z"/><path d="m896.527 1136.21-10.625 7.67c-9.22-14.72-19.519-24.42-35.262-22.76-23.646 1.6-33.431 25.92-28.488 44.27 4.779 16.44 24.361 24.45 39.916 15.67 3.663-2.07 7.903-4.23 7.903-4.23l6.56 8.47-37.532 42.64h39.627v-17.58h15.204v31.52h-77.461v-10.69s20.748-21.13 27.61-32.7c-16.885-.62-30.508-11.12-35.375-27.75-2.86-8.75-1.58-28.75 2.145-37.36 6.235-14.39 23.27-26.04 38.85-26.72 26.117-1.73 40.003 16.26 46.928 29.55z"/></g></svg>

<?xml version="1.0" encoding="UTF-8" standalone="no"?>
<!DOCTYPE svg PUBLIC "-//W3C//DTD SVG 1.1//EN" "http://www.w3.org/Graphics/SVG/1.1/DTD/svg11.dtd">
<svg width="100%" height="100%" viewBox="0 0 934 1300" version="1.1" xmlns="http://www.w3.org/2000/svg" xmlns:xlink="http://www.w3.org/1999/xlink" xml:space="preserve" xmlns:serif="http://www.serif.com/" style="fill-rule:evenodd;clip-rule:evenodd;stroke-linejoin:round;stroke-miterlimit:2;">
    <g id="_3D" serif:id="3D">
        <g id="path3666">
            <path d="M374.059,240.355C415.392,200.013 442.538,156.033 468.504,113.733C491.272,160.272 523.937,200.991 559.275,240.355C521.466,279.393 492.175,321.127 468.617,365.007C442.5,320.024 415.003,279.292 374.059,240.355Z" style="fill:rgb(212,0,0);fill-rule:nonzero;"/>
        </g>
        <g id="path3668">
            <path d="M374.059,1061.61C415.392,1021.27 442.538,977.292 468.504,934.993C491.272,981.532 523.937,1022.25 559.275,1061.61C521.466,1100.65 492.175,1142.39 468.617,1186.27C442.5,1141.28 415.003,1100.55 374.059,1061.61Z" style="fill:rgb(212,0,0);fill-rule:nonzero;"/>
        </g>
        <g id="path3672">
            <path d="M374.059,650.627C415.392,610.297 442.538,566.305 468.504,524.006C491.272,570.557 523.937,611.276 559.275,650.627C521.466,689.665 492.175,731.412 468.617,775.292C442.5,730.308 415.003,689.577 374.059,650.627Z" style="fill:rgb(212,0,0);fill-rule:nonzero;"/>
        </g>
        <path d="M819.591,1038.31C836.526,1021.78 847.652,1003.77 858.29,986.443C867.61,1005.5 880.995,1022.18 895.471,1038.31C879.979,1054.3 867.987,1071.39 858.327,1089.37C847.627,1070.94 836.375,1054.26 819.591,1038.31Z" style="fill:rgb(212,0,0);fill-rule:nonzero;"/>
        <path d="M37.821,262.176C54.755,245.655 65.882,227.629 76.52,210.305C85.84,229.372 99.225,246.056 113.701,262.176C98.209,278.17 86.216,295.267 76.557,313.243C65.857,294.816 54.605,278.132 37.821,262.176Z" style="fill:rgb(212,0,0);fill-rule:nonzero;"/>
        <g id="path7102-0">
            <path d="M36.807,163.785L47.419,156.12C56.652,170.847 66.95,180.544 82.693,178.876C106.339,177.282 116.124,152.959 111.181,134.619C106.402,118.174 86.821,110.158 71.266,118.939C67.603,121.009 63.363,123.568 63.363,123.568L57.818,114.536L94.335,72.061L54.707,72.061L54.707,89.636L39.504,89.636L39.504,58.125L116.964,58.125L116.964,68.812C116.964,68.812 96.216,89.937 89.342,101.515C106.239,102.13 119.862,112.642 124.729,129.263C127.589,138.006 126.31,158.015 122.572,166.632C116.35,181.008 99.315,192.662 83.735,193.339C57.605,195.07 43.731,177.082 36.807,163.785Z" style="fill:rgb(212,0,0);fill-rule:nonzero;"/>
        </g>
        <g id="path7118-1">
            <path d="M896.527,1136.21L885.902,1143.88C876.682,1129.16 866.383,1119.46 850.64,1121.12C826.994,1122.72 817.209,1147.04 822.152,1165.39C826.931,1181.83 846.513,1189.84 862.068,1181.06C865.731,1178.99 869.971,1176.83 869.971,1176.83L876.531,1185.3L838.999,1227.94L878.626,1227.94L878.626,1210.36L893.83,1210.36L893.83,1241.88L816.369,1241.88L816.369,1231.19C816.369,1231.19 837.117,1210.06 843.979,1198.49C827.094,1197.87 813.471,1187.37 808.604,1170.74C805.744,1161.99 807.024,1141.99 810.749,1133.38C816.984,1118.99 834.019,1107.34 849.599,1106.66C875.716,1104.93 889.602,1122.92 896.527,1136.21Z" style="fill:rgb(212,0,0);fill-rule:nonzero;"/>
        </g>
    </g>
</svg>
